images/PD_Webflow.svg

<?xml version="1.0" encoding="UTF-8" standalone="no"?><!DOCTYPE svg PUBLIC "-//W3C//DTD SVG 1.1//EN" "http://www.w3.org/Graphics/SVG/1.1/DTD/svg11.dtd"><svg width="100%" height="100%" viewBox="0 0 809 204" version="1.1" xmlns="http://www.w3.org/2000/svg" xmlns:xlink="http://www.w3.org/1999/xlink" xml:space="preserve" xmlns:serif="http://www.serif.com/" style="fill-rule:evenodd;clip-rule:evenodd;stroke-linejoin:round;stroke-miterlimit:2;"><path d="M261,79.5c0,-14.5 -14.1,-29.9 -38.5,-29.9c-27.4,0 -57.5,20.1 -62.1,60.2c-4.7,40.5 20.5,58.5 45.9,58.5c25.4,0 38.7,-9.9 52.3,-23.1c-11.7,-14.7 -26.8,-7.9 -29.7,-6.4c-3.2,1.6 -7.3,3.8 -15.7,3.8c-9.8,-0 -19.8,-4.4 -19.8,-22.7c62.8,-6.2 67.6,-25.9 67.6,-40.4Zm-31.1,2.4c-0.4,4.5 -2.2,12.2 -34,16.5c6.7,-23.8 19.5,-25.6 25.4,-25.6c5.5,-0 9,4.3 8.6,9.1Zm-106.4,3.9c0,-0 -13.5,42.4 -14.6,45.9c-0.4,-3.6 -10.3,-79.7 -10.3,-79.7c-23,-0 -35.3,16.4 -41.8,33.7c-0,-0 -16.4,42.5 -17.8,46.1c-0.1,-3.3 -2.5,-45.6 -2.5,-45.6c-1.4,-21.2 -20.8,-34.1 -36.5,-34.1l19,115.3c24.1,-0.1 37.1,-16.4 43.9,-33.7c0,-0 14.5,-37.5 15.1,-39.2c0.1,1.6 10.4,72.9 10.4,72.9c24.2,-0 37.2,-15.3 44.2,-32l33.9,-83.3c-23.9,-0 -36.5,16.3 -43,33.7Zm226.3,-36.4c-14.9,-0 -26.3,8.1 -35.9,20l-0,-0.1l8.6,-69.3c-19.8,-0 -35.9,17.2 -39,42.8l-15,123.7c11.4,-0 23.5,-3.3 30,-11.7c5.8,7.5 14.5,13.5 27.4,13.5c33.4,-0 56.3,-38.8 56.3,-75.2c-0.2,-33.2 -16.3,-43.7 -32.4,-43.7Zm-3.1,59.5c-3.5,20.3 -14.8,34.1 -25.7,34.1c-11,-0 -15.7,-4.9 -15.7,-4.9c2.1,-17.8 3.4,-28.7 7.4,-38.1c4,-9.4 13.5,-24.4 23.4,-24.4c9.7,-0 14.1,12.9 10.6,33.3Zm118.9,-56.8l-23.3,-0l0.1,-1.2c1.6,-15.2 5.2,-23.2 17.1,-24.5c8.1,-0.8 11.7,-5 12.6,-9.6c0.7,-3.6 2.9,-16.1 2.9,-16.1c-46.8,-0.3 -61.5,19.9 -65.3,50.7l-0.1,0.7l-0.5,-0c-7.6,-0 -16,8.6 -17.4,19.5l-0.5,4l15.6,-0l-13.1,108.2l-4,19.4c0.5,-0 1.1,0.1 1.6,0.1c21.9,-0.8 35.9,-18.1 39,-43.2l10.2,-84.5l7.3,-0c7.2,-0 15.6,-7.2 17.1,-19.2l0.7,-4.3Zm121.2,-2c-26.9,-0 -52.3,19.8 -60.1,50.9c-7.8,31.1 4,67.9 43.6,67.9c39.5,-0 62.3,-38.3 62.3,-70.2c-0,-31.7 -21.5,-48.6 -45.8,-48.6Zm10.9,57.8c-1.4,14.1 -7.6,35.5 -24.6,35.5c-17.1,-0 -14.7,-25 -13,-36.9c1.8,-12.7 8.9,-30.8 24.2,-30.8c13.7,-0 15,16.3 13.4,32.2Zm167.8,-22.1c-0,-0 -13.5,42.4 -14.6,45.9c-0.4,-3.6 -10.3,-79.7 -10.3,-79.7c-23,-0 -35.3,16.4 -41.8,33.7c-0,-0 -16.4,42.5 -17.8,46.1c-0.1,-3.3 -2.5,-45.6 -2.5,-45.6c-1.4,-21.2 -20.8,-34.1 -36.5,-34.1l18.9,115.3c24.1,-0.1 37.1,-16.4 43.9,-33.7c-0,-0 14.5,-37.5 15,-39.2c0.1,1.6 10.4,72.9 10.4,72.9c24.2,-0 37.2,-15.3 44.2,-32l33.9,-83.3c-23.8,-0 -36.4,16.3 -42.8,33.7Zm-277.9,-85.1l-19.6,158.1l-4,19.5c0.5,-0 1.1,0.1 1.6,0.1c21.1,-0.3 36.1,-18.8 38.9,-42.1l11.3,-90.7c3.4,-27.7 -13.1,-44.9 -28.2,-44.9Z" style="fill:#9ea5a7;fill-rule:nonzero;"/></svg>

<?xml version="1.0" encoding="UTF-8" standalone="no"?>
<!DOCTYPE svg PUBLIC "-//W3C//DTD SVG 1.1//EN" "http://www.w3.org/Graphics/SVG/1.1/DTD/svg11.dtd">
<svg width="100%" height="100%" viewBox="0 0 809 204" version="1.1" xmlns="http://www.w3.org/2000/svg" xmlns:xlink="http://www.w3.org/1999/xlink" xml:space="preserve" xmlns:serif="http://www.serif.com/" style="fill-rule:evenodd;clip-rule:evenodd;stroke-linejoin:round;stroke-miterlimit:2;">
    <path d="M261,79.5C261,65 246.9,49.6 222.5,49.6C195.1,49.6 165,69.7 160.4,109.8C155.7,150.3 180.9,168.3 206.3,168.3C231.7,168.3 245,158.4 258.6,145.2C246.9,130.5 231.8,137.3 228.9,138.8C225.7,140.4 221.6,142.6 213.2,142.6C203.4,142.6 193.4,138.2 193.4,119.9C256.2,113.7 261,94 261,79.5ZM229.9,81.9C229.5,86.4 227.7,94.1 195.9,98.4C202.6,74.6 215.4,72.8 221.3,72.8C226.8,72.8 230.3,77.1 229.9,81.9ZM123.5,85.8C123.5,85.8 110,128.2 108.9,131.7C108.5,128.1 98.6,52 98.6,52C75.6,52 63.3,68.4 56.8,85.7C56.8,85.7 40.4,128.2 39,131.8C38.9,128.5 36.5,86.2 36.5,86.2C35.1,65 15.7,52.1 0,52.1L19,167.4C43.1,167.3 56.1,151 62.9,133.7C62.9,133.7 77.4,96.2 78,94.5C78.1,96.1 88.4,167.4 88.4,167.4C112.6,167.4 125.6,152.1 132.6,135.4L166.5,52.1C142.6,52.1 130,68.4 123.5,85.8ZM349.8,49.4C334.9,49.4 323.5,57.5 313.9,69.4L313.9,69.3L322.5,0C302.7,0 286.6,17.2 283.5,42.8L268.5,166.5C279.9,166.5 292,163.2 298.5,154.8C304.3,162.3 313,168.3 325.9,168.3C359.3,168.3 382.2,129.5 382.2,93.1C382,59.9 365.9,49.4 349.8,49.4ZM346.7,108.9C343.2,129.2 331.9,143 321,143C310,143 305.3,138.1 305.3,138.1C307.4,120.3 308.7,109.4 312.7,100C316.7,90.6 326.2,75.6 336.1,75.6C345.8,75.6 350.2,88.5 346.7,108.9ZM465.6,52.1L442.3,52.1L442.4,50.9C444,35.7 447.6,27.7 459.5,26.4C467.6,25.6 471.2,21.4 472.1,16.8C472.8,13.2 475,0.7 475,0.7C428.2,0.4 413.5,20.6 409.7,51.4L409.6,52.1L409.1,52.1C401.5,52.1 393.1,60.7 391.7,71.6L391.2,75.6L406.8,75.6L393.7,183.8L389.7,203.2C390.2,203.2 390.8,203.3 391.3,203.3C413.2,202.5 427.2,185.2 430.3,160.1L440.5,75.6L447.8,75.6C455,75.6 463.4,68.4 464.9,56.4L465.6,52.1ZM586.8,50.1C559.9,50.1 534.5,69.9 526.7,101C518.9,132.1 530.7,168.9 570.3,168.9C609.8,168.9 632.6,130.6 632.6,98.7C632.6,67 611.1,50.1 586.8,50.1ZM597.7,107.9C596.3,122 590.1,143.4 573.1,143.4C556,143.4 558.4,118.4 560.1,106.5C561.9,93.8 569,75.7 584.3,75.7C598,75.7 599.3,92 597.7,107.9ZM765.5,85.8C765.5,85.8 752,128.2 750.9,131.7C750.5,128.1 740.6,52 740.6,52C717.6,52 705.3,68.4 698.8,85.7C698.8,85.7 682.4,128.2 681,131.8C680.9,128.5 678.5,86.2 678.5,86.2C677.1,65 657.7,52.1 642,52.1L660.9,167.4C685,167.3 698,151 704.8,133.7C704.8,133.7 719.3,96.2 719.8,94.5C719.9,96.1 730.2,167.4 730.2,167.4C754.4,167.4 767.4,152.1 774.4,135.4L808.3,52.1C784.5,52.1 771.9,68.4 765.5,85.8ZM487.6,0.7L468,158.8L464,178.3C464.5,178.3 465.1,178.4 465.6,178.4C486.7,178.1 501.7,159.6 504.5,136.3L515.8,45.6C519.2,17.9 502.7,0.7 487.6,0.7Z" style="fill:rgb(152,152,152);fill-rule:nonzero;"/>
</svg>
